X:1
T:La Folia
T:La Folia
T:annotated by David Bookstaber 
T:Simplified Arrangement of Arcangelo Corelli's Variations for Violin 
C:David Bookstaber
%%score ( 1 2 )
L:1/8
Q:1/4=60
M:3/4
K:F
V:1 treble nm="Violin" snm="Vln."
V:2 treble 
V:1
!f! !2!d2 (d3 e) | ^c4 c2 | d2 (d3 c/d/) | e4 !2!e2 | f2 (f3 g) | e4 !3!e2 | (d^c) (d3 e) | %7
 ^c4 c2 |!p! d2 (d3 e) | (d2 ^c2) c2 | d2 (Td3 c/d/) | e4 !2!e2 | f2 (f3 g) | (e3 e) f2 | %14
 !1!d2 (!2!d3 ^c) | d6 ||[Q:1/4=100]!f! z2 (u!4!A2 !open!d) z | z2 (!2!e2 g) z | z2 (d2 f) z | %19
 z2 (!1!g2 !4!c') z | z2 (c2 f) z | z2 (!2
!e2 !open!!4!a) z | u!3!f!0!A (!3!d3 e) | !breath!^c6 | %24
 z (u!0!A{/c}BA d2) | z (!0!A!2!e!0!A !4!g2) | z (u!0!A!2!de f2) | z (!1!cgc !3
!c'2) | %28
 z (!1!ac')(!4!_e'!4!d'a) | (!2!b3 !3!a)ga | (!1!fe) (T!2!e2 ed) | d6 ||[M:6/8]!f! !3!dfafdf | %33
 !0!ea^ceAc | dfafdf | e!1!g!4!c'!1!g!0!e!2!g | !3!af!3!a!4!c'!3!af | !2!gc!0!ega!0!e | fAdfed | %39
 !breath!^c4 c2 |!p! .!3!d.f.a.f.d.f | .!0!e.a.^c.e.A.c | .d.f.a.f.d.f | %43
 .e.!1!g.!4!c'.!1!g.!0!e.!2!g | .!3!a.f.!3!a.!4!c'.!3!a.f |!<(! gegbag!<)! | (fe) (!4!e3 d) | d6 || %48
[M:3/4][Q:1/4=110]!f! d/f/a/f/ d/f/a/f/ d/f/a/f/ | ^c/e/a/e/ c/e/a/e/ c/e/a/e/ | %50
 d/f/a/f/ d/f/a/f/ !2!=B/f/g/f/ | c/e/g/e/ c/e/g/e/ _B/e/g/e/ | %52
 !1!f/!3!a/!4!c'/a/ f/a/c'/a/ f/a/g/f/ | !0!e/!1!g/!4!c'/g/ e/g/c'/g/ e/!2!g/f/e/ | %54
 f/A/=B/^c/ d/c/d/!4!e/ !3!d/!1!f/!0!e/d/ |!>(! ^c/A/c/!4!e/ c/A/c/!4!e/ c/A/c/!4!e/!>)! | %56
!p! d/f/a/f/ d/f/a/f/ d/f/a/f/ | ^c/e/a/e/ c/e/a/e/ c/e/a/e/ | d/f/a/f/ d/f/a/f/ !2!=B/f/g/f/ | %59
 c/e/g/e/ c/e/g/e/ _B/e/g/e/ |!<(! !1!f/!3!a/!4!c'/a/ f/a/c'/a/ f/a/g/f/!<)! | %61
 !0!e/!1!g/!4!c'/g/ e/g/c'/g/ e/!2!g/f/e/ | f/d/^c/d/ A/d/c/d/ E/d/c/d/ | D6 || %64
!ff! ud z (d3 !4!e) | (d^c) c3 (u!0!A | !1!d) z (d3 d) | (de) e3 (u!0!A | !3!f) z (f3 f) | %69
 (fe) (eg) fe | d z (f3 !3!d) | !breath!u^c2 z (uA=Bc | ud) z (d3 !4!e) | (d^c) c3 (u!0!A | %74
 d) z (d3 d) | (de) e3 (uc | a) z (a3 a) | (ag) (gb) ag | (fe) (!4!e3 d) | d6 || %80
[M:4/4][Q:1/4=80]!mf! (!3!d3 d) ^c4 | (!1!d3 d) e4 | (!3!f3 f) e4 | (!1!d3 !3!d) ^c4 | %84
 ([df]3 [df]) [^ce]4 | ([df]3 [df]) !1
3
![eg]4 | !2
4
!a3 !2
0
!a !2
1
!g2 (fe) | %87
 [df]2 [^ce]2 [DAf]4 ||[M:2/2][Q:1/4=110]!f! dADd ^cEA,c | dAD!2!d eGCe | fcF!1!f eGCe | %91
 dFB,d ^cE!breath!A,.c | .d.A.D.d .^c.E.A,.c | .d.A.D.!2!d .e.G.C.e | .f.c.F.!1!f .e.G.C.e | %95
 .d.F.A,.^c !>!d2 !>!!breath!D2 ||[M:12/8][Q:1/4=120] .d.A.F .D.A.d .^c(E/D/^C/=B,/ A,).A.c | %97
 .d.A.F .D.d.f .e(G/F/E/D/ =C).c.e | .f.c.A .F.c.f .e(G/F/E/D/ C).e.f | %99
 .d.F.D .B,.d.e .^c(E/D/^C/=B,/ A,).A.c | .d.A.F .D.A.d .^c(=B/4A/4G/4F/4E/4D/4^C/4=B,/4 A,).A.c | %101
 .d.A.F .D.d.f .e(d/4=c/4B/4A/4G/4F/4E/4D/4 C).c.e | %102
 .f.c.A .F.c.f .e(d/4c/4B/4A/4G/4F/4E/4D/4 C)ef | dFD A,d^c"_ritardando" (!3!D3 D)(!2!=C!2!B,) | %104
[M:3/4][Q:1/4=60] A,4 (A,2 | A,/!4!D/)C/B,/ A,3 (uA, | (3A,)!2!B,!2!=B, !3!C3 (!1!C | %107
 C/F/)E/D/ (v!1!C4 | (3!1!B,)(!2!C!3!^C) (3:2:2(!2!D2 D){/_E} (3(uDCD) | B4 (A2 | %110
 A) !1!G2 (!2!G{/A} (3GFG) | A4 z2 ||[Q:1/4=120] z (u!1!fa.A) d2 | z (u^ce.E) A2 | z (ufa.A) d2 | %115
 z (u!2!eg.G) c2 | z (u!2!ac'.c) f2 | z (u!0!e!2!g.e) a2 | z (ufa.A) d2 | %119
 z ((u^c!4!e).!1!E.!4!A.A,) | v!4!f3 (A !2!d2) | !1!^c3 (!2!e !open!!4!a2) | %122
 !3!f3 (!open!!4!a !1!d2) | e3 (!1!g c'2) | !2!a3 (c f2) | e3 (!1!c !1!g2) | !1!f3 (d !0!Ad/^c/) | %127
 d2 D4 || z u!0!A2 !0!D2 (!3!d | d.^c) .A.E.^C.!4!A | .F ua2 !1!d2 (f | f.e).c.G.E.!4!c | %132
 .!0!A u!4!c'2 !1!f2 (a | a.g).e.c.e.a | .f u!0!A2 d2 !4!e | .v^c.!0!A.E.^C A,2 | %136
 z!mp! u!0!A2 !0!D2 (!3!d | d.^c) .A.E.^C.!4!A | .F ua2 !1!d2 ((f | f.e)).c.G.E.!4!c | %140
 .!0!A u!4!c'2 !1!f2 (a | a.g).e.c.e.a | .f.A z vd A,(d/^c/) | d2 D4 ||!f! v!3!d2 A2 (d2 | %145
 d2) ^c4 | !2!a2 d2 (f2 | f2) e4 | !4!c'2 !1!f2 (a2 | a2) g4 | f2 (!4!e3 d) | ^c6 | %152
 !open!u!4!a2 !2!e^f (g2 | g2) ^f4 | g2 de (=f2 | f2) e4 | !3!f2 !2!c!3!d (!4!_e2 | %157
 _e2) ^c2 (!3!d2 | d!0
3
![de]) !0
2
![^ce]4 | [Dd]6 ||!p! (d/A/)(d/A/) (d/A/)(d/A/) (d/A/)(d/A/) | %161
 (^c/A/)(c/A/) (c/A/)(c/A/) (c/A/)(c/A/) | (d/A/)(d/A/) (d/A/)(d/A/) (d/A/)(d/A/) | %163
 (e/c/)(e/c/) (e/c/)(e/c/) (e/c/)(e/c/) | (f/c/)(f/c/) (f/c/)(f/c/) (f/c/)(f/c/) | %165
 (e/c/)(e/c/) (e/c/)(e/c/) (e/c/)(e/c/) | (d/A/)(d/A/) (d/A/)(d/A/) (d/A/)(d/A/) | %167
 (^c/A/)(c/A/) (c/A/)(c/A/) (c/A/)(c/A/) |!mf! (d/A/)(d/A/) (d/A/)(d/A/) (d/A/)(d/A/) | %169
 (^c/A/)(c/A/) (c/A/)(c/A/) (c/A/)(c/A/) | (d/A/)(d/A/) (d/A/)(d/A/) (d/A/)(d/A/) | %171
!<(! (e/c/)(e/c/) (e/c/)(e/c/) (e/c/)(e/c/)!<)! |!f! (f/c/)(f/c/) (f/c/)(f/c/) (f/c/)(f/c/) | %173
 (!1
0
![D=B]/!2
1
![Bg]/)([DB]/[Bg]/) (!3
1
![E^c]/!2

![cg]/)([Ec]/[cg]/) (!3![Dd]/!1![df]/)([Dd]/[df]/) | %174
 ([Dd]/[df]/)([Dd]/[df]/) (!3![Gd]/!0
3
![de]/)([Gd]/[de]/) (!2
4
![A^c]/!0
2
![ce]/)([Ac]/[ce]/) | %175
 !breath![Ddf]6 ||[Q:1/4=100]!ff! v[Dd]2 vd3 u!4
!e | [E^c]4 !0
2
![ce]2 | %178
 v[DAf]2 v[df]3 [ce]/[df]/ | u!1
3
![eg]4 !1
1
![cg]2 | [Aa]2 [ca]3 !3!b | !1
1
![cg]4 [^ca]2 | %182
 (!1
3
![df]g) (T[Bg]4{fg)} | v[E^ca]4 (10:4:10(uA,/=B,/^C/D/E/F/G/A/=B/^c/) | v[Dd]2 vd3 u!4!e | %185
 v[E^c]4 (12:4:12(uA,/=B,/^C/D/E/F/G/A/=B/c/d/e/) | v[DAf]2 v[df]3 [=ce]/[df]/ | %187
 u!1
3
![eg]4 (12:4:12(vC/D/E/F/G/A/B/c/d/e/f/g/) | u[Aa]2 [ca]3 b | v[cg]4 [^ca]2 | %190
 v[Ddf]2 u[Gde]3 v[A^ce] | u[Ddf]4 v[DAa]2 | u[G,DBb]2 v[A,EAe]3 [Ag] | %193
 v[DAf]4[Q:1/4=60] u!0
2
![FA]2 | v[DB]2 TvE7/2 !0
2
!D/ | !fermata!D6 |] %196
V:2
 x6 | x6 | x6 | x6 | x6 | x6 | x6 | x6 | x6 | x6 | x6 | x6 | x6 | x6 | x6 | x6 || x6 | x6 | x6 | %19
 x6 | x6 | x6 | x6 | x6 | x6 | x6 | x6 | x6 | x6 | x6 | x6 | x6 ||[M:6/8] x6 | x6 | x6 | x6 | x6 | %37
 x6 | x6 | x6 | x6 | x6 | x6 | x6 | x6 | x6 | x6 | x6 ||[M:3/4] x6 | x6 | x6 | x6 | x6 | x6 | x6 | %55
 x6 | x6 | x6 | x6 | x6 | x6 | x6 | x6 | x6 || x6 | x6 | x6 | x6 | x6 | x6 | x6 | x6 | x6 | x6 | %74
 x6 | x6 | x6 | x6 | x6 | x6 ||[M:4/4] x8 | x8 | x8 | x8 | x8 | x8 | f3 A (=B!3!^c) d2 | x8 || %88
[M:2/2] x8 | x8 | x8 | x8 | x8 | x8 | x8 | x8 ||[M:12/8] x12 | x12 | x12 | x12 | x12 | x12 | x12 | %103
 x12 |[M:3/4] x6 | x6 | x6 | x6 | x6 | x6 | x6 | x6 || x6 | x6 | x6 | x6 | x6 | x6 | x6 | x6 | x6 | %121
 x6 | x6 | x6 | x6 | x6 | x6 | x6 || x6 | x6 | x6 | x6 | x6 | x6 | x6 | x6 | x6 | x6 | x6 | x6 | %140
 x6 | x6 | x6 | x6 || x6 | x6 | x6 | x6 | x6 | x6 | x6 | x6 | x6 | x6 | x6 | x6 | x6 | x6 | x6 | %159
 x6 || ffffff | eeeeee | ffffff | !1
3
!gggggg | !2
4
!aaaaaa | !1
3
!gggggg | ffffff | eeeeee | %168
 ffffff | eeeeee | ffffff | gggggg | aaaaaa | x6 | x6 | x6 || x6 | x6 | x6 | x6 | x6 | x6 | x6 | %183
 x6 | x6 | x6 | x6 | x6 | x6 | x6 | x6 | x6 | x6 | x6 | G,2 A,7/2 D/ | D6 |] %196

